_includes/icons/color-dribbble.svg

<svg fill="#666" height="50" viewBox="0 0 48 48" width="50" xmlns="http://www.w3.org/2000/svg"><path d="m42 37c0 2.761719-2.238281 5-5 5h-26c-2.761719 0-5-2.238281-5-5v-26c0-2.761719 2.238281-5 5-5h26c2.761719 0 5 2.238281 5 5z" fill="#ff4081"/><path d="m33.0625 26.273438c-.703125-.222657-1.464844.175781-1.6875.894531-.824219 2.65625-2.316406 5.417969-2.992187 5.570312-.507813 0-1.238282-.429687-1.957032-1.441406 1.671875-3.59375 2.550782-8.105469 2.550782-11.117187 0-8.414063-2.125-10.179688-3.910157-10.179688-3.757812 0-3.800781 9.910156-3.800781 10.011719 0 1.167969.042969 2.25.121094 3.257812-.515625-.191406-1.113281-.320312-1.769531-.320312-3.859375 0-5.617188 3.808594-5.617188 7.347656 0 3.332031 1.871094 6.703125 6.046875 6.703125 1.972656 0 3.632813-1.289062 4.972656-3.222656 1.191407 1.238281 2.433594 1.699219 3.363282 1.699219 2.921875 0 4.855468-5.234375 5.554687-7.488282.222656-.71875-.171875-1.484375-.875-1.714843zm-13.015625 7.992187c-3.03125 0-3.359375-2.777344-3.359375-3.96875 0-.191406.035156-4.613281 2.933594-4.613281 1.144531 0 2.019531.886719 2.019531.886719.066406.070312.136719.128906.214844.183593.375 1.902344.902344 3.425782 1.515625 4.632813-1.003906 1.734375-2.167969 2.878906-3.324219 2.878906zm4.855469-6.339844c-.558594-1.929687-.949219-4.519531-.949219-7.914062 0-3.125.667969-6.066406 1.222656-7.074219.421875.644531 1.113282 2.652344 1.113282 7.242188 0 2.4375-.539063 5.265625-1.386719 7.746093z" fill="#fff"/></svg>

<svg xmlns="http://www.w3.org/2000/svg" viewBox="0 0 48 48" width="50" height="50" fill="#666"><path d="M 42 37 C 42 39.761719 39.761719 42 37 42 L 11 42 C 8.238281 42 6 39.761719 6 37 L 6 11 C 6 8.238281 8.238281 6 11 6 L 37 6 C 39.761719 6 42 8.238281 42 11 Z" fill="#ff4081"/><path d="M 33.0625 26.273438 C 32.359375 26.050781 31.597656 26.449219 31.375 27.167969 C 30.550781 29.824219 29.058594 32.585938 28.382813 32.738281 C 27.875 32.738281 27.144531 32.308594 26.425781 31.296875 C 28.097656 27.703125 28.976563 23.191406 28.976563 20.179688 C 28.976563 11.765625 26.851563 10 25.066406 10 C 21.308594 10 21.265625 19.910156 21.265625 20.011719 C 21.265625 21.179688 21.308594 22.261719 21.386719 23.269531 C 20.871094 23.078125 20.273438 22.949219 19.617188 22.949219 C 15.757813 22.949219 14 26.757813 14 30.296875 C 14 33.628906 15.871094 37 20.046875 37 C 22.019531 37 23.679688 35.710938 25.019531 33.777344 C 26.210938 35.015625 27.453125 35.476563 28.382813 35.476563 C 31.304688 35.476563 33.238281 30.242188 33.9375 27.988281 C 34.160156 27.269531 33.765625 26.503906 33.0625 26.273438 Z M 20.046875 34.265625 C 17.015625 34.265625 16.6875 31.488281 16.6875 30.296875 C 16.6875 30.105469 16.722656 25.683594 19.621094 25.683594 C 20.765625 25.683594 21.640625 26.570313 21.640625 26.570313 C 21.707031 26.640625 21.777344 26.699219 21.855469 26.753906 C 22.230469 28.65625 22.757813 30.179688 23.371094 31.386719 C 22.367188 33.121094 21.203125 34.265625 20.046875 34.265625 Z M 24.902344 27.925781 C 24.34375 25.996094 23.953125 23.40625 23.953125 20.011719 C 23.953125 16.886719 24.621094 13.945313 25.175781 12.9375 C 25.597656 13.582031 26.289063 15.589844 26.289063 20.179688 C 26.289063 22.617188 25.75 25.445313 24.902344 27.925781 Z" fill="#fff"/></svg>
